X: 1
T: Kinny Cally, The
M: 6/8
L: 1/8
R: jig
K: Fmaj
|: cfd cAG | FAG FGA | ~c3 cde | ~f3 agf |
dcA cAG | ~F3 GFD | Bdf cAG | FDD D3 :|
|: A,DD D2E | FAG FDC | Ddd dcA | cfd cde |
f2a edc | aed cAG | Bdf ~c2G | FDD D3 :|
|: d2a age | ~d3 dcA | ~c3 ~g2d | cAG ~F3 |
Aca dcA | cfA FGA | Bdf ~c2G | FDD D3 :|
